icons/phpstan.svg

<!--
  - The MIT License (MIT)
  -
  - Copyright (c) 2015-2024 Elior "Mallowigi" Boukhobza
  -
  - Permission is hereby granted, free of charge, to any person obtaining a copy
  - of this software and associated documentation files (the "Software"), to deal
  - in the Software without restriction, including without limitation the rights
  - to use, copy, modify, merge, publish, distribute, sublicense, and/or sell
  - copies of the Software, and to permit persons to whom the Software is
  - furnished to do so, subject to the following conditions:
  -
  - The above copyright notice and this permission notice shall be included in all
  - copies or substantial portions of the Software.
  -
  - THE SOFTWARE IS PROVIDED "AS IS", WITHOUT WARRANTY OF ANY KIND, EXPRESS OR
  - IMPLIED, INCLUDING BUT NOT LIMITED TO THE WARRANTIES OF MERCHANTABILITY,
  - FITNESS FOR A PARTICULAR PURPOSE AND NONINFRINGEMENT. IN NO EVENT SHALL THE
  - AUTHORS OR COPYRIGHT HOLDERS BE LIABLE FOR ANY CLAIM, DAMAGES OR OTHER
  - LIABILITY, WHETHER IN AN ACTION OF CONTRACT, TORT OR OTHERWISE, ARISING FROM,
  - OUT OF OR IN CONNECTION WITH THE SOFTWARE OR THE USE OR OTHER DEALINGS IN THE
  - SOFTWARE.
  -
  -->

<svg  width="16px" height="16px" xmlns="http://www.w3.org/2000/svg" xmlns:xlink="http://www.w3.org/1999/xlink"
     viewBox="0 0 32 32">
  <path
      d="M6.40523 24.1738L5.76886 25.6799C5.63363 26.2119 5.78795 26.7246 6.31613 26.9489C6.91273 27.2037 7.46159 26.9281 7.63182 26.6012L7.84977 26.0805L6.40523 24.1738Z"
      fill="#263238"/>
  <path
      d="M16.0795 4.59922C16.0795 4.59922 18.5136 4.49988 20.55 6.09892C20.6245 6.16365 20.7197 6.19925 20.8181 6.19925C20.9165 6.19925 21.0116 6.16365 21.0861 6.09892C21.1604 6.03111 21.2051 5.9365 21.2105 5.83567C21.2158 5.73485 21.1814 5.63598 21.1148 5.56056C21.013 5.43719 20.5659 4.98696 20.2111 4.96774C20.2111 4.96774 20.9143 4.00639 22.7423 4.00639C25.065 4.00639 30 7.38072 30 13.7016C30 19.7757 26.0227 21.0847 24.9425 21.0847C23.2975 21.0847 21.592 19.3879 21.592 18.3032C22.2002 17.9541 22.7263 17.4767 23.1341 16.9037C23.5419 16.3306 23.8217 15.6756 23.9545 14.9834C23.9545 14.9834 24.042 12.3925 23.9545 10.1975C23.9367 10.1001 23.8883 10.0111 23.8164 9.94355C23.7445 9.87604 23.6529 9.83361 23.5552 9.82253C23.4458 9.82081 23.3401 9.86285 23.2614 9.93943C23.1827 10.016 23.1373 10.1209 23.1352 10.2311C23.1352 10.4762 23.2434 11.9936 23.1623 14.7174C23.1177 16.1834 21.7304 17.329 21.0766 17.587C21.2892 16.9895 21.4656 16.3795 21.6048 15.7604C21.6557 15.5217 21.6048 15.3551 21.4457 15.2878C21.4013 15.2679 21.3533 15.2574 21.3047 15.257C21.2561 15.2565 21.208 15.2661 21.1632 15.2852C21.1185 15.3043 21.0781 15.3324 21.0446 15.3679C21.0111 15.4033 20.9851 15.4453 20.9684 15.4913C20.8618 15.706 17.0834 27.9888 11.8573 27.9888C7.4425 27.9888 4.89705 21.6887 4.89705 20.2435C4.89705 18.7983 5.81818 18.1173 6.63113 18.1173C7.44409 18.1173 8.55295 18.9345 8.68818 19.194C8.82341 19.4536 8.10591 20.0769 8.10591 20.0769L7.48068 19.5722C7.41007 19.5176 7.32291 19.4892 7.23393 19.4918C7.14495 19.4945 7.05959 19.5279 6.99227 19.5866C6.92386 19.6532 6.88444 19.7444 6.88266 19.8402C6.88087 19.936 6.91685 20.0286 6.98273 20.0977C7.14182 20.2579 11.9145 24.1033 11.9145 24.1033C11.9902 24.175 12.0883 24.2178 12.1919 24.2245C12.2956 24.2313 12.3983 24.2014 12.4825 24.1402C12.5542 24.0723 12.5964 23.9785 12.5996 23.8794C12.6029 23.7804 12.5671 23.684 12.5 23.6114L11.1557 22.5283L12.5875 18.4987C12.5875 18.4987 10.3904 17.5165 8.95545 18.5996C8.95545 18.5996 8.19818 17.3386 6.69477 17.3386C6.05229 17.3284 5.43035 17.5666 4.95688 18.0041C4.48341 18.4416 4.19441 19.0452 4.14932 19.6908C4.14932 19.6908 2 17.6014 2 13.7352C2 9.35788 5.46659 3.99998 9.48682 3.99998C10.3932 3.99877 11.2721 4.3129 11.975 4.88922L11.0873 5.56377C11.0122 5.63509 10.9673 5.73272 10.9616 5.83648C10.956 5.94024 10.9902 6.04222 11.057 6.12135C11.1201 6.19203 11.2071 6.23647 11.3009 6.24596C11.3948 6.25544 11.4888 6.22929 11.5645 6.17262C11.7045 6.07008 13.1364 4.59922 16.0795 4.59922Z"
      fill="#5C6BC0" data-iconColor="PHPStan"/>
  <path
      d="M9.85273 21.4949L11.1255 18.6109C11.6347 18.7063 12.1508 18.7599 12.6686 18.7711C14.6382 18.7711 18.4293 17.1688 18.4293 12.8316C18.4293 8.49429 14.7416 6.7879 12.4793 6.7879C9.42 6.7879 6.43386 9.09193 6.43386 12.6377C6.43386 16.3325 9.12886 17.7777 9.12886 17.7777L8.10591 20.0865L9.85273 21.4949Z"
      fill="#263238"/>
  <path
      d="M19.7609 13.0046C19.7071 13.0047 19.6542 12.9911 19.6071 12.965C19.5599 12.939 19.5201 12.9013 19.4914 12.8555C19.4626 12.8098 19.4458 12.7574 19.4426 12.7033C19.4394 12.6493 19.4498 12.5953 19.473 12.5464C19.4905 12.5111 19.8866 11.6972 20.717 11.6972C21.5475 11.6972 21.942 12.4663 21.958 12.4983C21.9784 12.5359 21.9912 12.5772 21.9956 12.6199C21.9999 12.6625 21.9957 12.7056 21.9832 12.7466C21.9707 12.7876 21.9502 12.8257 21.9228 12.8585C21.8954 12.8914 21.8618 12.9184 21.8239 12.9379C21.786 12.9574 21.7446 12.969 21.7021 12.9721C21.6596 12.9753 21.617 12.9698 21.5767 12.956C21.5364 12.9422 21.4992 12.9204 21.4674 12.8918C21.4356 12.8633 21.4098 12.8287 21.3916 12.7899C21.382 12.7723 21.1498 12.3381 20.717 12.3381C20.2843 12.3381 20.0505 12.8187 20.0473 12.8187C20.0219 12.8739 19.9816 12.9206 19.9309 12.9535C19.8802 12.9864 19.8212 13.0041 19.7609 13.0046V13.0046Z"
      fill="#263238"/>
  <path
      d="M12.4252 16.6962C14.5419 16.6962 16.2577 14.9681 16.2577 12.8364C16.2577 10.7047 14.5419 8.97657 12.4252 8.97657C10.3086 8.97657 8.59273 10.7047 8.59273 12.8364C8.59273 14.9681 10.3086 16.6962 12.4252 16.6962Z"
      fill="#D7CCC8"/>
  <path
      d="M12.4252 14.828C13.5174 14.828 14.4027 13.9363 14.4027 12.8364C14.4027 11.7364 13.5174 10.8448 12.4252 10.8448C11.3331 10.8448 10.4477 11.7364 10.4477 12.8364C10.4477 13.9363 11.3331 14.828 12.4252 14.828Z"
      fill="#263238"/>
</svg>

<svg xmlns="http://www.w3.org/2000/svg" viewBox="0 0 32 32"><path fill="#263238" d="M6.405 24.174 5.77 25.68c-.135.532.019 1.045.547 1.269.597.255 1.146-.02 1.316-.348l.218-.52z"/><path fill="#5c6bc0" d="M16.08 4.6s2.434-.1 4.47 1.499a.41.41 0 0 0 .536 0 .384.384 0 0 0 .029-.538c-.102-.124-.55-.574-.904-.593 0 0 .703-.962 2.531-.962 2.323 0 7.258 3.375 7.258 9.696 0 6.074-3.977 7.383-5.058 7.383-1.645 0-3.35-1.697-3.35-2.782a4.9 4.9 0 0 0 1.542-1.4 4.9 4.9 0 0 0 .82-1.92s.088-2.59 0-4.786a.46.46 0 0 0-.399-.374.41.41 0 0 0-.42.408c0 .245.108 1.763.027 4.486-.044 1.466-1.432 2.612-2.085 2.87q.319-.897.528-1.827c.05-.238 0-.405-.16-.472a.35.35 0 0 0-.477.203c-.106.215-3.885 12.498-9.11 12.498-4.416 0-6.961-6.3-6.961-7.745s.921-2.127 1.734-2.127 1.922.817 2.057 1.077-.582.883-.582.883l-.625-.505a.385.385 0 0 0-.489.015.363.363 0 0 0-.01.51c.16.16 4.933 4.006 4.933 4.006a.445.445 0 0 0 .568.037.376.376 0 0 0 .017-.529l-1.344-1.083 1.431-4.03s-2.197-.982-3.632.102c0 0-.757-1.261-2.26-1.261a2.5 2.5 0 0 0-1.738.665 2.54 2.54 0 0 0-.808 1.687S2 17.6 2 13.735C2 9.358 5.467 4 9.487 4a3.92 3.92 0 0 1 2.488.89l-.888.674a.407.407 0 0 0-.03.557.38.38 0 0 0 .508.052c.14-.103 1.571-1.574 4.515-1.574" data-iconColor="PHPStan"/><path fill="#263238" d="m9.853 21.495 1.273-2.884q.765.143 1.543.16c1.97 0 5.76-1.602 5.76-5.94 0-4.337-3.687-6.043-5.95-6.043-3.059 0-6.045 2.304-6.045 5.85 0 3.694 2.695 5.14 2.695 5.14l-1.023 2.309zm9.907-8.49a.32.32 0 0 1-.269-.15.32.32 0 0 1-.018-.309c.018-.035.414-.849 1.244-.849s1.225.77 1.241.801a.33.33 0 0 1-.035.36.318.318 0 0 1-.531-.068c-.01-.018-.242-.452-.675-.452s-.666.48-.67.48a.32.32 0 0 1-.286.187"/><path fill="#d7ccc8" d="M12.425 16.696c2.117 0 3.833-1.728 3.833-3.86s-1.716-3.86-3.833-3.86-3.832 1.729-3.832 3.86c0 2.132 1.716 3.86 3.832 3.86"/><path fill="#263238" d="M12.425 14.828a1.985 1.985 0 0 0 1.978-1.992c0-1.1-.886-1.991-1.978-1.991a1.985 1.985 0 0 0-1.977 1.991c0 1.1.885 1.992 1.977 1.992"/></svg>
